svgs/light/screen-users.svg

<svg xmlns="http://www.w3.org/2000/svg" viewBox="0 0 640 512"><!-- Font Awesome Pro 6.0.0-alpha2 by @fontawesome - https://fontawesome.com License - https://fontawesome.com/license (Commercial License) --><path d="M116 416H76C34.125 416 0 451.875 0 496C0 504.75 7.25 512 16 512S32 504.75 32 496C32 469.5 51.75 448 76 448H116C140.25 448 160 469.5 160 496C160 504.75 167.25 512 176 512S192 504.75 192 496C192 451.875 157.875 416 116 416ZM564 416H524C482.125 416 448 451.875 448 496C448 504.75 455.25 512 464 512S480 504.75 480 496C480 469.5 499.75 448 524 448H564C588.25 448 608 469.5 608 496C608 504.75 615.25 512 624 512S640 504.75 640 496C640 451.875 605.875 416 564 416ZM340 416H300C258.125 416 224 451.875 224 496C224 504.75 231.25 512 240 512S256 504.75 256 496C256 469.5 275.75 448 300 448H340C364.25 448 384 469.5 384 496C384 504.75 391.25 512 400 512S416 504.75 416 496C416 451.875 381.875 416 340 416ZM256 320C256 355.346 284.654 384 320 384S384 355.346 384 320S355.346 256 320 256S256 284.654 256 320ZM352 320C352 337.645 337.645 352 320 352S288 337.645 288 320S302.355 288 320 288S352 302.355 352 320ZM544 256C508.654 256 480 284.654 480 320S508.654 384 544 384S608 355.346 608 320S579.346 256 544 256ZM544 352C526.355 352 512 337.645 512 320S526.355 288 544 288S576 302.355 576 320S561.645 352 544 352ZM96 384C131.346 384 160 355.346 160 320S131.346 256 96 256S32 284.654 32 320S60.654 384 96 384ZM96 288C113.645 288 128 302.355 128 320S113.645 352 96 352S64 337.645 64 320S78.355 288 96 288ZM48 240C56.844 240 64 232.844 64 224V48C64 39.172 71.188 32 80 32H560C568.812 32 576 39.172 576 48V224C576 232.844 583.156 240 592 240S608 232.844 608 224V48C608 21.531 586.469 0 560 0H80C53.531 0 32 21.531 32 48V224C32 232.844 39.156 240 48 240Z"/></svg>

<svg xmlns="http://www.w3.org/2000/svg" viewBox="0 0 640 512"><!--! Font Awesome Pro 6.3.0 by @fontawesome - https://fontawesome.com License - https://fontawesome.com/license (Commercial License) Copyright 2023 Fonticons, Inc. --><path d="M116 416h-40C34.13 416 0 451.9 0 496C0 504.8 7.25 512 16 512S32 504.8 32 496C32 469.5 51.75 448 76 448h40C140.3 448 160 469.5 160 496C160 504.8 167.3 512 176 512S192 504.8 192 496C192 451.9 157.9 416 116 416zM564 416h-40C482.1 416 448 451.9 448 496c0 8.75 7.25 16 16 16s16-7.25 16-16c0-26.5 19.75-48 44-48h40C588.3 448 608 469.5 608 496c0 8.75 7.25 16 16 16s16-7.25 16-16C640 451.9 605.9 416 564 416zM340 416h-40C258.1 416 224 451.9 224 496C224 504.8 231.3 512 240 512S256 504.8 256 496C256 469.5 275.8 448 300 448h40C364.3 448 384 469.5 384 496c0 8.75 7.25 16 16 16s16-7.25 16-16C416 451.9 381.9 416 340 416zM256.2 320c0 35.35 28.44 63.98 63.79 63.98S383.8 355.3 383.8 320S355.3 256 320 256S256.2 284.7 256.2 320zM352 320c0 17.64-14.36 32-32 32s-32-14.36-32-32s14.36-32 32-32S352 302.4 352 320zM544 256c-35.35 0-63.79 28.64-63.79 63.98S508.7 383.1 544 383.1S607.8 355.3 607.8 320S579.3 256 544 256zM544 352c-17.64 0-32-14.36-32-32s14.36-32 32-32s32 14.36 32 32S561.6 352 544 352zM96 383.1c35.35 0 63.79-28.64 63.79-63.98S131.3 256 96 256S32.21 284.7 32.21 320S60.65 383.1 96 383.1zM96 288c17.64 0 32 14.36 32 32s-14.36 32-32 32s-32-14.36-32-32S78.36 288 96 288zM48 240C56.84 240 64 232.8 64 224V48C64 39.17 71.19 32 80 32h480C568.8 32 576 39.17 576 48V224c0 8.844 7.156 16 16 16S608 232.8 608 224V48c0-26.47-21.53-47.1-48-47.1h-480C53.53 .0001 32 21.53 32 48V224C32 232.8 39.16 240 48 240z"/></svg>
